X:268
T:Jackson's Bottle of Brandy
M:6/8
R:Jig
K:G
|:E|G2e dBG|BAB dBA|G2e dBG|AGA BGE|G2e dBG|BAB deg|age dBG|AGA BG:|:E|
g3f3|e3 def|gfg efg|aga bge|1g3f3|e3deg|age dBG|AGA BG:||2g3a3|bge deg|a
ge dBG|AGA BGE||G6||
% Written by ABC2Win  2.2.119 on 4/28/2006
